icons/line/badge-check.svg

<svg width="24" height="24" viewBox="0 0 24 24" fill="none" xmlns="http://www.w3.org/2000/svg">
<path fill-rule="evenodd" clip-rule="evenodd" d="M13.9459 2.3444C12.8246 1.38886 11.1754 1.38886 10.0542 2.3444L8.7827 3.42794C8.62254 3.56443 8.4234 3.64692 8.21363 3.66366L6.54839 3.79654C5.07986 3.91373 3.91373 5.07986 3.79654 6.54839L3.66366 8.21363C3.64692 8.4234 3.56443 8.62254 3.42794 8.7827L2.3444 10.0542C1.38886 11.1754 1.38886 12.8246 2.3444 13.9459L3.42794 15.2173C3.56443 15.3775 3.64692 15.5766 3.66366 15.7864L3.79654 17.4517C3.91373 18.9202 5.07986 20.0863 6.54839 20.2035L8.21363 20.3364C8.4234 20.3531 8.62254 20.4356 8.7827 20.5721L10.0542 21.6556C11.1754 22.6112 12.8246 22.6112 13.9459 21.6556L15.2173 20.5721C15.3775 20.4356 15.5766 20.3531 15.7864 20.3364L17.4517 20.2035C18.9202 20.0863 20.0863 18.9202 20.2035 17.4517L20.3364 15.7864C20.3531 15.5766 20.4356 15.3775 20.5721 15.2173L21.6556 13.9459C22.6112 12.8246 22.6112 11.1754 21.6556 10.0542L20.5721 8.7827C20.4356 8.62254 20.3531 8.4234 20.3364 8.21363L20.2035 6.54839C20.0863 5.07986 18.9202 3.91373 17.4517 3.79654L15.7864 3.66366C15.5766 3.64692 15.3775 3.56443 15.2173 3.42794L13.9459 2.3444ZM11.3514 3.86663C11.7252 3.54812 12.2749 3.54812 12.6486 3.86663L13.9201 4.95017C14.4006 5.35964 14.998 5.6071 15.6273 5.65732L17.2926 5.79021C17.7821 5.82927 18.1708 6.21798 18.2098 6.70749L18.3427 8.37273C18.3929 9.00203 18.6404 9.59945 19.0499 10.0799L20.1334 11.3514C20.4519 11.7252 20.4519 12.2749 20.1334 12.6486L19.0499 13.9201C18.6404 14.4006 18.3929 14.998 18.3427 15.6273L18.2098 17.2926C18.1708 17.7821 17.7821 18.1708 17.2926 18.2098L15.6273 18.3427C14.998 18.3929 14.4006 18.6404 13.9201 19.0499L12.6486 20.1334C12.2749 20.4519 11.7252 20.4519 11.3514 20.1334L10.0799 19.0499C9.59945 18.6404 9.00203 18.3929 8.37273 18.3427L6.70749 18.2098C6.21798 18.1708 5.82927 17.7821 5.79021 17.2926L5.65732 15.6273C5.6071 14.998 5.35964 14.4006 4.95017 13.9201L3.86663 12.6486C3.54812 12.2749 3.54812 11.7252 3.86663 11.3514L4.95017 10.0799C5.35964 9.59945 5.6071 9.00203 5.65732 8.37273L5.79021 6.70749C5.82927 6.21798 6.21798 5.82927 6.70749 5.79021L8.37273 5.65732C9.00203 5.6071 9.59945 5.35964 10.0799 4.95017L11.3514 3.86663ZM15.7071 10.7071C16.0977 10.3166 16.0977 9.68344 15.7071 9.29292C15.3166 8.90239 14.6834 8.90239 14.2929 9.29292L11 12.5858L9.70713 11.2929C9.3166 10.9024 8.68344 10.9024 8.29292 11.2929C7.90239 11.6834 7.90239 12.3166 8.29292 12.7071L10.2929 14.7071C10.6834 15.0977 11.3166 15.0977 11.7071 14.7071L15.7071 10.7071Z" fill="currentColor"/>
</svg>

<svg width="24" height="24" fill="none" xmlns="http://www.w3.org/2000/svg"><path fill-rule="evenodd" clip-rule="evenodd" d="M13.946 2.344a3 3 0 00-3.892 0L8.783 3.428a1 1 0 01-.57.236l-1.665.133a3 3 0 00-2.751 2.751l-.133 1.666a1 1 0 01-.236.569l-1.084 1.271a3 3 0 000 3.892l1.084 1.271a1 1 0 01.236.57l.133 1.665a3 3 0 002.751 2.751l1.666.133a1 1 0 01.569.236l1.271 1.084a3 3 0 003.892 0l1.271-1.084a1 1 0 01.57-.236l1.665-.133a3 3 0 002.751-2.751l.133-1.666a1 1 0 01.236-.569l1.084-1.271a3 3 0 000-3.892l-1.084-1.271a1 1 0 01-.236-.57l-.133-1.665a3 3 0 00-2.751-2.751l-1.666-.133a1 1 0 01-.569-.236l-1.271-1.084zM11.35 3.867a1 1 0 011.298 0L13.92 4.95a3 3 0 001.707.707l1.666.133a1 1 0 01.917.917l.133 1.666a3 3 0 00.707 1.707l1.083 1.271a1 1 0 010 1.298L19.05 13.92a3 3 0 00-.707 1.707l-.133 1.666a1 1 0 01-.917.917l-1.666.133a3 3 0 00-1.707.707l-1.271 1.083a1 1 0 01-1.298 0L10.08 19.05a3 3 0 00-1.707-.707l-1.666-.133a1 1 0 01-.917-.917l-.133-1.666a3 3 0 00-.707-1.707L3.867 12.65a1 1 0 010-1.298L4.95 10.08a3 3 0 00.707-1.707l.133-1.666a1 1 0 01.917-.917l1.666-.133a3 3 0 001.707-.707l1.271-1.083zm4.356 6.84a1 1 0 10-1.414-1.414L11 12.586l-1.293-1.293a1 1 0 00-1.414 1.414l2 2a1 1 0 001.414 0l4-4z" fill="currentColor"/></svg>
